!!!OTL: ARM SEELCHEN WAS WEINEST DU SO SEHR
!!!ARE: Europa, Mitteleuropa, Deutschland, Nieder - Deutsch
!!!SCT: Z0103
!!!YEM: Copyright 1995, estate of Helmut Schaffrath.
**kern
*ICvox
*Ivox
*M3/8
*k[b-]
*F:
{16f
16a
=1
8.cc
16dd
16cc
16b-
=2
8.a
16g}
{8a
=3
16b-
16b-
8b-
8a
=4
8g
8r}
{16f
16a
=5
8.cc
16dd
16cc
16b-
=6
8.a
16g}
{8a
=7
16b-
16b-
8b-
8a
=8
8g
8r}
{16a
16f
=9
8.f
16g
16a
16b-
=10
8g
8g}
{16cc
16b-
=11
8a
8a
8g
=12
8a
8r}
{16a
16g
=13
8.f
16g
16a
16b-
=14
8g
8g}
{16cc
16b-
=15
8a
8a
8g
=16
4f}
==
!!!AGN: Sagen - Lied, Romanze
!!!ONB: ESAC (Essen Associative Code) Database: ZUCCAL
!!!AMT: simple triple
!!!AIN: vox
!!!EED: Helmut Schaffrath
!!!EEV: 1.0
*-
